public/assets/pictures/puzzle_classic_bg_rgb.svg

<?xml version="1.0" encoding="UTF-8" standalone="no"?>
<svg width="310px" height="80px" viewBox="0 0 310 80" version="1.1" xmlns="http://www.w3.org/2000/svg" xmlns:xlink="http://www.w3.org/1999/xlink" xmlns:sketch="http://www.bohemiancoding.com/sketch/ns">
    <!-- Generator: Sketch 3.0.3 (7891) - http://www.bohemiancoding.com/sketch -->
    <title>logo_classic_bg</title>
    <desc>Created with Sketch.</desc>
    <defs></defs>
    <g id="Page-1" stroke="none" stroke-width="1" fill="none" fill-rule="evenodd" sketch:type="MSPage">
        <g id="logo_classic_bg" sketch:type="MSLayerGroup" fill="#FFFFFF">
            <path d="M102.863636,42.8364912 L107.93011,42.8364912 C109.403315,42.8364912 110.526696,42.4336842 111.296028,41.6245614 C112.066769,40.8161404 112.451787,39.7775439 112.451787,38.5080702 C112.451787,37.2112281 112.066769,36.1494737 111.296028,35.3214035 C110.526696,34.4926316 109.403315,34.0785965 107.93011,34.0785965 L102.863636,34.0785965 L102.863636,42.8364912 Z M102.863636,48.0477193 L102.863636,58.0477193 L96.0494474,58.0477193 L96.0494474,28.8673684 L107.93011,28.8673684 C111.400201,28.8673684 114.154454,29.7536842 116.190757,31.522807 C118.229172,33.2947368 119.247675,35.6091228 119.247675,38.4680702 C119.247675,41.3410526 118.229172,43.6561404 116.190757,45.4133333 C114.154454,47.1691228 111.400201,48.0477193 107.93011,48.0477193 L102.863636,48.0477193 Z M146.12434,28.8675088 L146.12434,47.9875088 C146.12434,51.3152281 145.015037,53.8934737 142.797135,55.7243509 C140.579937,57.5538246 137.675056,58.4682105 134.084602,58.4682105 C130.452621,58.4682105 127.524511,57.5538246 125.29957,55.7243509 C123.075333,53.8934737 121.961807,51.3152281 121.961807,47.9875088 L121.961807,28.8675088 L128.7767,28.8675088 L128.7767,47.9875088 C128.7767,49.778386 129.239848,51.104 130.164033,51.9664561 C131.088217,52.826807 132.395308,53.258386 134.084602,53.258386 C135.759115,53.258386 137.047905,52.8310175 137.953085,51.9755789 C138.857561,51.1201404 139.309447,49.7910175 139.309447,47.9875088 L139.309447,28.8675088 L146.12434,28.8675088 Z M157.164298,52.8378246 L170.492826,52.8378246 L170.492826,58.0476491 L148.802293,58.0476491 L148.802293,55.0020351 L161.88869,34.0785263 L148.742464,34.0785263 L148.742464,28.8672982 L170.312635,28.8672982 L170.312635,31.793614 L157.164298,52.8378246 Z M180.981159,52.8378246 L194.308984,52.8378246 L194.308984,58.0476491 L172.619859,58.0476491 L172.619859,55.0020351 L185.706255,34.0785263 L172.558622,34.0785263 L172.558622,28.8672982 L194.128792,28.8672982 L194.128792,31.793614 L180.981159,52.8378246 Z M203.672106,52.8378246 L216.275646,52.8378246 L216.275646,58.0476491 L196.856509,58.0476491 L196.856509,28.8672982 L203.672106,28.8672982 L203.672106,52.8378246 Z M236.928671,45.5626667 L225.449919,45.5626667 L225.449919,52.8377544 L238.978348,52.8377544 L238.978348,58.0475789 L218.636434,58.0475789 L218.636434,28.8672281 L239.018468,28.8672281 L239.018468,34.0784561 L225.449919,34.0784561 L225.449919,40.3514386 L236.928671,40.3514386 L236.928671,45.5626667 Z M259.540995,58.0477193 L252.766927,58.0477193 L252.766927,28.8673684 L259.540995,28.8673684 L259.540995,58.0477193 Z M284.27099,34.0785965 L276.551621,34.0785965 L276.551621,58.0477193 L269.736728,58.0477193 L269.736728,34.0785965 L262.078596,34.0785965 L262.078596,28.8673684 L284.27099,28.8673684 L284.27099,34.0785965 Z M309.071513,47.8077193 L309.111634,47.9270175 C308.977195,51.3480702 307.960803,53.9592982 306.065978,55.7642105 C304.167634,57.5677193 301.418308,58.4680702 297.813778,58.4680702 C294.195873,58.4680702 291.25439,57.3592982 288.989329,55.1417544 C286.724267,52.9242105 285.591737,50.0449123 285.591737,46.5045614 L285.591737,40.4119298 C285.591737,36.8842105 286.679923,34.0084211 288.859113,31.7845614 C291.036894,29.56 293.865757,28.4470175 297.352037,28.4470175 C301.050183,28.4470175 303.876935,29.3761404 305.832292,31.2322807 C307.791169,33.0905263 308.895545,35.7284211 309.150347,39.1494737 L309.111634,39.2694737 L302.497345,39.2694737 C302.403026,37.3719298 301.977887,35.962807 301.22052,35.0407018 C300.463857,34.1185965 299.172955,33.6575439 297.352037,33.6575439 C295.809853,33.6575439 294.597081,34.2757895 293.712313,35.5122807 C292.828953,36.7487719 292.386217,38.3677193 292.386217,40.3719298 L292.386217,46.5045614 C292.386217,48.5221053 292.869074,50.1529825 293.834083,51.394386 C294.798388,52.6378947 296.124484,53.2589474 297.813778,53.2589474 C299.448873,53.2589474 300.608151,52.8238596 301.291611,51.9550877 C301.974368,51.0877193 302.363609,49.7045614 302.45652,47.8077193 L309.071513,47.8077193 Z M11.6887872,68.3477193 C-3.89635626,52.8101754 -3.89635626,27.62 11.6887872,12.0831579 C27.2711153,-3.45298246 52.538728,-3.4522807 68.1217599,12.0831579 C83.7061995,27.6214035 83.7047918,52.8087719 68.1217599,68.3463158 C52.5380241,83.8838596 27.2732269,83.8852632 11.6887872,68.3477193 Z M38.8588264,45.0983158 C38.8588264,45.0983158 46.0411408,44.086386 48.1161567,40.0884912 C50.1925804,36.0934035 52.6378333,27.9951579 52.6378333,27.9951579 C41.5792934,27.9944561 40.593872,31.8569123 40.593872,31.8569123 C40.593872,31.8569123 33.6044187,51.3411228 31.1120064,58.5298947 C11.746364,58.5298947 14.8412911,48.9930526 14.8412911,48.9930526 L24.5279836,21.9011228 L44.1533549,21.9011228 L42.8427444,25.8028772 C42.8427444,25.8028772 44.4419426,21.9011228 55.2583503,21.9011228 C55.2583503,21.9011228 66.3471567,21.9495439 65.0442888,25.8232281 C63.7435326,29.6955088 59.5604187,41.3123509 59.5604187,41.3123509 C58.1611203,45.0983158 49.97438,45.0653333 38.8588264,45.0983158 Z" id="Fill-1" sketch:type="MSShapeGroup"></path>
        </g>
    </g>
</svg>

<svg xmlns="http://www.w3.org/2000/svg" viewBox="0 0 310 80"><path fill="#FFF" fill-rule="evenodd" d="M102.86 42.84h5.07c1.47 0 2.6-.4 3.37-1.22.77-.8 1.15-1.84 1.15-3.1 0-1.3-.38-2.37-1.15-3.2-.77-.83-1.9-1.24-3.37-1.24h-5.07v8.76zm0 5.2v10h-6.8V28.88h11.87c3.47 0 6.22.88 8.26 2.65 2.03 1.77 3.05 4.1 3.05 6.95 0 2.87-1.02 5.2-3.06 6.94-2.05 1.77-4.8 2.65-8.27 2.65h-5.07zm43.26-19.17V48c0 3.32-1.1 5.9-3.32 7.72-2.22 1.83-5.12 2.75-8.72 2.75-3.63 0-6.56-.92-8.78-2.75-2.22-1.83-3.34-4.4-3.34-7.73V28.86h6.82V48c0 1.78.46 3.1 1.38 3.97.93.86 2.24 1.3 3.92 1.3 1.68 0 2.97-.44 3.87-1.3.9-.85 1.36-2.18 1.36-3.98V28.86h6.82zm11.04 23.97h13.33v5.2h-21.7V55l13.1-20.92h-13.16v-5.2h21.57v2.9l-13.14 21.06zm23.82 0h13.33v5.2h-21.68V55l13.1-20.92h-13.16v-5.2h21.57v2.9l-13.15 21.06zm22.7 0h12.6v5.2h-19.42V28.88h6.8v23.97zm33.25-7.28h-11.48v7.28h13.53v5.2h-20.34V28.88h20.38v5.2h-13.57v6.28h11.48v5.2zm22.6 12.5h-6.76v-29.2h6.77v29.2zm24.74-23.98h-7.72v23.97h-6.8V34.08h-7.67v-5.2h22.2v5.2zm24.8 13.73l.04.13c-.12 3.42-1.14 6.03-3.03 7.83-1.9 1.8-4.65 2.7-8.26 2.7-3.6 0-6.55-1.1-8.8-3.32-2.28-2.22-3.4-5.1-3.4-8.64v-6.1c0-3.52 1.08-6.4 3.26-8.62 2.18-2.22 5-3.33 8.5-3.33 3.7 0 6.52.93 8.47 2.78 1.96 1.86 3.07 4.5 3.32 7.92l-.04.12h-6.6c-.1-1.9-.52-3.3-1.28-4.23-.76-.92-2.05-1.38-3.87-1.38-1.54 0-2.75.62-3.64 1.85-.87 1.25-1.3 2.87-1.3 4.87v6.13c0 2.02.47 3.65 1.43 4.9.97 1.24 2.3 1.86 3.98 1.86 1.65 0 2.8-.44 3.5-1.3.67-.87 1.06-2.26 1.16-4.15h6.6zM11.7 68.36c-15.6-15.54-15.6-40.73 0-56.27 15.57-15.53 40.84-15.53 56.42 0 15.6 15.54 15.58 40.73 0 56.27-15.58 15.53-40.85 15.54-56.43 0zM38.85 45.1s7.18-1 9.26-5c2.07-4 4.52-12.1 4.52-12.1-11.06 0-12.05 3.86-12.05 3.86s-7 19.48-9.5 26.67C11.76 58.53 14.85 49 14.85 49l9.7-27.1h19.6l-1.3 3.9s1.6-3.9 12.42-3.9c0 0 11.1.05 9.78 3.92-1.3 3.88-5.48 15.5-5.48 15.5-1.4 3.78-9.6 3.75-20.7 3.78z"/></svg>
